X:1
T:The Lady's Ramble to May Fair
T:The Lady's Ramble to May Fair
T:John Weldon (1676-1736) arr. Felix Scharpf 
T:transposed for Treble Recorder and Cello 
T:twoflutes 2015 rev. 2020 / Felix Scharpf / https://digital.nls.uk/special-collections-of-printed-music/archive/91274556
T:twoflutes 2015 rev. 2020 / Felix Scharpf / https://digital.nls.uk/special-collections-of-printed-music/archive/91274556
T:twoflutes 2015 rev. 2020 / Felix Scharpf / https://digital.nls.uk/special-collections-of-printed-music/archive/91274556
Z:twoflutes 2015 rev. 2020 / Felix Scharpf / https://digital.nls.uk/special-collections-of-printed-music/archive/91274556
%%score [ 1 2 ]
L:1/8
Q:1/2=72
M:2/2
K:F
V:1 treble nm="Altblockflöte"
V:2 bass nm="Violoncello"
V:1
 z2 A2 c4 | A2 (F2 A2 c2 | f4) f2 (f/g/a) | d2 f2 (bagf) | (f2 e2) (f3 g) | (ag)(gf) (fedc) | %6
 (c2 =B2) (c3 d) | (efg)c (c/d/e) (dc) | c6 z2 :: !wedge!f3 z !wedge!g3 z | a2 (a/g/f) (Pd>e) f2 | %11
 (e>f)(gd) (d2 ^c2) | (d3 e) (f>g) a2 | (gf)ed d4 | (Mf3 c d4) | (Mg3 d e4) | (Ma3 e f3) a | %17
 (ba)gf f2 (ec) | (f>g) (f/g/a) (ag)(gf) | (agPfe) f4 :: z4 (a2 f2) | (g2 c2) (f2 d2) | e4 (fedc) | %23
 =B2 g2 (fedc) | c2 (c2 f2 c2) | (d2 f2) (e/f/g) (fe) | (d^c) (e2 a2) (g2 | b2) a2 (gfed) | %28
 d2 (de) (f2 c2) | (A2 d2) (c2 f2) | (e2 c2) (f2 a2) | (d2 g2) (c2 f2) | (fedc dcBA) | %33
 (BGAB cdcB) | (A2 c2) (f2 c2) | (d2 f2) (g2 d2) | (e2 c2) (f2 a2) | (d2 g2) (c2 e2) | %38
 !fermata!f8 ::[M:3/4][Q:3/4=60]"^più mosso" (f2 e2 d2) | (c2 B2 A2) | (PB>A) G2 c2 | %42
 (A>B) (PA3 G/F/) | (c2 f2) (c2 | d2 e2 f2) | (g>a) (bagf) | (f2 e2) z2 | (f2 e2 d2) | (c2 B2 A2) | %49
 (PB>A) G2 c2 | (A>B) (PA3 G/F/) | (c2 f2) (c2 | d2) (bagf) | (e>d) c2 (fe | f6) :: z2 (a2 g2) | %56
 (f4 e2) | (d>e) (fedc) | =B4 z2 | z2 (c2 d2) | (e3 f) (gc) | z2 (c/d/e) (dc) | c4 z2 | %63
 z2 (f2 c2) | (d3 e f2) | z2 (g2 b2) | (f2 e2) z2 | z2 f2 (f/g/a) | a2 (gagf) | (c2 f2) (Pge) | %70
 f6 :| %71
V:2
 (F,4 E,4 | F,6) E,2 | D,4 A,,4 | (B,,2 A,,2 G,,4) | B,,2 (CB, A,3 G, | F,8) | (G,3 F,) (E,3 D,) | %7
 (C,2 E,2 F,2 G,2) | C,2 (CD CB,A,G,) :: (F,A,G,F,) (E,C,E,F,) | (F,G, A,2) (B,CB,A,) | %11
 G,4 (A,B,A,G,) | (F,G,F,E,) (D,E,F,D,) | (G,2 A,2) D,(DCB,) | (A,G,A,F,) (B,CB,A,) | %15
 (G,A,B,G,) (CDCB,) | (A,B,CA,) (DEDC) | B,4 (CDCB,) | A,4 (B,2 A,2) | (B,2 C2) F,4 :: F,8 | %21
 (E,4 D,4) | (C,2 C2) (A,2 F,2) | (G,2 E,2) (F,2 G,2) | C,2 (C2 A,2 F,2) | (B,2 A,2 G,4) | %26
 (A,2 G,2 F,4) | (G,4 A,4) | D,4 (D,2 E,2) | (F,2 B,,2) (A,,2 D,2) | (C,2 C2) (A,2 F,2) | %31
 (B,2 G,2) (C2 C,2) | F,8 | (F,4 E,4) | F,4 A,,4 | (B,,4 G,,4) | (C,2 C2) (A,2 F,2) | %37
 (B,2 G,2) (C2 C,2) | !fermata!F,8 ::[M:3/4] F,6 | (E,4 F,2) | (D,2 E,2) C,2 | (F,4 F,G,) | A,6 | %44
 (B,4 A,2) | G,6 | C,2 (CB,A,G,) | F,6 | (E,4 F,2) | (D,2 E,2) C,2 | F,4 (F,G,) | A,6 | B,6 | C6 | %54
 F,6 :: (F,4 E,2) | (D,4 C,2) | =B,,2 A,,4 | G,,2 (G,2 F,2) | (E,4 D,2) | (C,3 D, E,2) | %61
 (F,2 G,2) G,,2 | C,2 (C2 B,2) | A,6 | (B,4 A,2) | G,6 | C,2 (C2 B,2) | (A,4 F,2) | B,4 A,2 | %69
 (B,2 C2) C,2 | F,6 :| %71

